!!!OTL: Dongjia chimi wo chikang
!!!ARE: Asia, China,ÿSichuan, Cangxi
!! II, 237, 1)
!!!SCT: C1501
!!!YEM: Copyright 1995, estate of Helmut Schaffrath.
**kern
*ICvox
*Ivox
*M2/4
*k[f#]
*G:
{8ee
8ee
8ee
16gg
16aa
=1
4.bb
8aa
=2
16gg
16aa
4bb
8aa
=3
8gg
16gg
[16ee
4ee]}
=4
{8ee
8ee
8ee
8gg
=5
8gg
8aa
8bb
8aa
=6
8ee
8ee
8ee
8gg
=7
8gg
8aa
8bb
8aa}
=8
{8ee
8ee
8gg
[8aa
=9
4.aa]
8bb
=10
16gg
16aa
8b
8.gg
16ee
=11
8ee
4.ee}
==
!!!AGN: Shange. Suku
!!!AMT: simple duple
!!!AIN: vox
!!!EED: Helmut Schaffrath
!!!EEV: 1.0
*-
!!!ONB: Tied note syntax fixed by Craig Sapp, 2004/05/03/
